icons/svg/power/generator_solar.svg

<?xml version="1.0" encoding="UTF-8" standalone="no"?>
<!-- Created with Inkscape (http://www.inkscape.org/) -->

<svg
   xmlns:dc="http://purl.org/dc/elements/1.1/"
   xmlns:cc="http://creativecommons.org/ns#"
   xmlns:rdf="http://www.w3.org/1999/02/22-rdf-syntax-ns#"
   xmlns:svg="http://www.w3.org/2000/svg"
   xmlns="http://www.w3.org/2000/svg"
   xmlns:sodipodi="http://sodipodi.sourceforge.net/DTD/sodipodi-0.dtd"
   xmlns:inkscape="http://www.inkscape.org/namespaces/inkscape"
   version="1.0"
   width="580"
   height="580"
   id="svg2"
   sodipodi:version="0.32"
   inkscape:version="0.48.4 r9939"
   sodipodi:docname="station_solar.svg"
   inkscape:output_extension="org.inkscape.output.svg.inkscape">
  <metadata
     id="metadata10">
    <rdf:RDF>
      <cc:Work
         rdf:about="">
        <dc:format>image/svg+xml</dc:format>
        <dc:type
           rdf:resource="http://purl.org/dc/dcmitype/StillImage" />
        <cc:license
           rdf:resource="http://web.resource.org/cc/PublicDomain" />
        <dc:language>en</dc:language>
        <dc:title />
      </cc:Work>
    </rdf:RDF>
  </metadata>
  <sodipodi:namedview
     inkscape:window-height="1002"
     inkscape:window-width="1278"
     inkscape:pageshadow="2"
     inkscape:pageopacity="0.0"
     guidetolerance="10.0"
     gridtolerance="10.0"
     objecttolerance="10.0"
     borderopacity="1.0"
     bordercolor="#666666"
     pagecolor="#ffffff"
     id="base"
     showgrid="false"
     inkscape:zoom="0.70710678"
     inkscape:cx="259.2587"
     inkscape:cy="270.3036"
     inkscape:window-x="42"
     inkscape:window-y="0"
     inkscape:current-layer="svg2"
     inkscape:window-maximized="0"
     showguides="true"
     inkscape:guide-bbox="true" />
  <defs
     id="defs4">
    <inkscape:perspective
       sodipodi:type="inkscape:persp3d"
       inkscape:vp_x="0 : 290 : 1"
       inkscape:vp_y="0 : 1000 : 0"
       inkscape:vp_z="580 : 290 : 1"
       inkscape:persp3d-origin="290 : 193.33333 : 1"
       id="perspective12" />
    <style
       type="text/css"
       id="style6">
   
    .fil0 {fill:#EF7900}
   
  </style>
    <inkscape:perspective
       id="perspective6807"
       inkscape:persp3d-origin="29.116032 : 19.410688 : 1"
       inkscape:vp_z="58.232063 : 29.116032 : 1"
       inkscape:vp_y="0 : 1000 : 0"
       inkscape:vp_x="0 : 29.116032 : 1"
       sodipodi:type="inkscape:persp3d" />
    <inkscape:perspective
       id="perspective6954"
       inkscape:persp3d-origin="290 : 193.33333 : 1"
       inkscape:vp_z="580 : 290 : 1"
       inkscape:vp_y="0 : 1000 : 0"
       inkscape:vp_x="0 : 290 : 1"
       sodipodi:type="inkscape:persp3d" />
    <inkscape:perspective
       id="perspective2541"
       inkscape:persp3d-origin="240 : 160 : 1"
       inkscape:vp_z="480 : 240 : 1"
       inkscape:vp_y="0 : 1000 : 0"
       inkscape:vp_x="0 : 240 : 1"
       sodipodi:type="inkscape:persp3d" />
    <inkscape:perspective
       id="perspective2750"
       inkscape:persp3d-origin="215 : 143.33333 : 1"
       inkscape:vp_z="430 : 215 : 1"
       inkscape:vp_y="0 : 1000 : 0"
       inkscape:vp_x="0 : 215 : 1"
       sodipodi:type="inkscape:persp3d" />
    <inkscape:perspective
       id="perspective3730"
       inkscape:persp3d-origin="88.929146 : 101.19778 : 1"
       inkscape:vp_z="177.85829 : 151.79668 : 1"
       inkscape:vp_y="0 : 1000 : 0"
       inkscape:vp_x="0 : 151.79668 : 1"
       sodipodi:type="inkscape:persp3d" />
    <inkscape:perspective
       id="perspective9"
       inkscape:persp3d-origin="372.04724 : 350.78739 : 1"
       inkscape:vp_z="744.09448 : 526.18109 : 1"
       inkscape:vp_y="0 : 1000 : 0"
       inkscape:vp_x="0 : 526.18109 : 1"
       sodipodi:type="inkscape:persp3d" />
    <inkscape:perspective
       id="perspective2985"
       inkscape:persp3d-origin="372.04724 : 350.78739 : 1"
       inkscape:vp_z="744.09448 : 526.18109 : 1"
       inkscape:vp_y="0 : 1000 : 0"
       inkscape:vp_x="0 : 526.18109 : 1"
       sodipodi:type="inkscape:persp3d" />
    <linearGradient
       id="linearGradient3828">
      <stop
         id="stop3830"
         offset="0"
         style="stop-color: rgb(204, 204, 204); stop-opacity: 0;" />
      <stop
         style="stop-color: rgb(204, 204, 204); stop-opacity: 0.654867;"
         offset="0.125"
         id="stop3840" />
      <stop
         style="stop-color: rgb(204, 204, 204); stop-opacity: 1;"
         offset="0.5"
         id="stop3836" />
      <stop
         id="stop3832"
         offset="1"
         style="stop-color: rgb(204, 204, 204); stop-opacity: 0;" />
    </linearGradient>
  </defs>
  <g
     id="g1327">
    <path
       d="M 66.275,1.768 C 24.94,1.768 1.704,23.139 1.704,66.804 L 1.704,516.927 C 1.704,557.771 22.598,579.156 63.896,579.156 L 515.92,579.156 C 557.227,579.156 578.149,558.84 578.149,516.927 L 578.149,66.804 C 578.149,24.203 557.227,1.768 514.627,1.768 C 514.624,1.768 66.133,1.625 66.275,1.768 z"
       style="fill:#111111;stroke:#eeeeee;stroke-width:3.40799999"
       id="path1329" />
  </g>
  <path
     style="font-size:medium;font-style:normal;font-variant:normal;font-weight:normal;font-stretch:normal;text-indent:0;text-align:start;text-decoration:none;line-height:normal;letter-spacing:normal;word-spacing:normal;text-transform:none;direction:ltr;block-progression:tb;writing-mode:lr-tb;text-anchor:start;baseline-shift:baseline;color:#000000;fill:#ffffff;fill-opacity:1;fill-rule:nonzero;stroke:none;stroke-width:24.18604469;marker:none;visibility:visible;display:inline;overflow:visible;enable-background:accumulate;font-family:Sans;-inkscape-font-specification:Sans"
     d="m 91.654435,382.94435 c -6.18495,-0.009 -12.106357,4.46871 -13.784625,10.42162 l -6.541229,23.06061 61.716689,0 4.10212,-33.48223 z m 69.366605,0 -4.10214,33.48223 73.43177,0 2.21737,-33.48223 z m 95.23586,0 -2.21737,33.48223 69.92094,0 -2.21737,-33.48223 z m 89.17506,0 2.21737,33.48223 73.43177,0 -4.10213,-33.48223 z m 95.42065,0 4.10212,33.48223 61.71669,0 -6.54123,-23.06061 c -1.67827,-5.95291 -7.59967,-10.42969 -13.78463,-10.42162 z m -374.217454,52.40375 -10.015103,35.47786 70.031807,0 4.36082,-35.47786 z m 88.251164,0 -4.36082,35.47786 76.38826,0 2.32823,-35.47786 z m 98.04453,0 -2.32823,35.47786 76.79476,0 -2.32823,-35.47786 z m 95.82716,0 2.32823,35.47786 76.38826,0 -4.36082,-35.47786 z m 98.22931,0 4.36082,35.47786 70.03181,0 -10.01511,-35.47786 z M 50.559253,492.11266 43.57455,516.83629 c -1.20612,4.23593 -0.324598,9.01239 2.328234,12.52812 2.652834,3.51572 7.015145,5.68873 11.419435,5.69124 l 61.457991,0 5.28472,-42.94299 z m 97.342367,0 -5.24777,42.94299 80.00995,0 2.84562,-42.94299 z m 101.29666,0 -2.84562,42.94299 85.29468,0 -2.84562,-42.94299 z m 103.2923,0 2.84562,42.94299 80.00995,0 -5.24777,-42.94299 z m 101.44449,0 5.28472,42.94299 61.458,0 c 4.40428,-0.002 8.76659,-2.17552 11.41942,-5.69124 2.65284,-3.51573 3.53436,-8.29219 2.32824,-12.52812 l -6.9847,-24.72363 z"
     id="path4329"
     inkscape:connector-curvature="0"
     sodipodi:nodetypes="ccccccccccccccccccccccccccccccccccccccccccccccccccccccsccccccccccccccccccccccsccc" />
  <g
     id="g4508"
     transform="matrix(0.93589813,0,0,0.93589813,-198.9151,6.9304065)">
    <path
       transform="matrix(0.8875005,0,0,0.8875005,31.58446,61.794406)"
       d="m 482,122 c 0,41.97364 -34.02636,76 -76,76 -41.97364,0 -76,-34.02636 -76,-76 0,-41.973641 34.02636,-76 76,-76 41.97364,0 76,34.026359 76,76 z"
       sodipodi:ry="76"
       sodipodi:rx="76"
       sodipodi:cy="122"
       sodipodi:cx="406"
       id="path4331"
       style="fill:#ffffff;fill-opacity:1;stroke:#ffffff;stroke-width:11.26759911;stroke-linecap:round;stroke-linejoin:round;stroke-miterlimit:4;stroke-opacity:1;stroke-dasharray:none"
       sodipodi:type="arc" />
    <path
       inkscape:connector-curvature="0"
       id="path4337"
       d="m 489.47586,171.05406 47.85463,-0.0911"
       style="fill:none;stroke:#ffffff;stroke-width:20;stroke-linecap:round;stroke-linejoin:round;stroke-miterlimit:4;stroke-opacity:1;stroke-dasharray:none"
       inkscape:transform-center-x="-140.00927"
       inkscape:transform-center-y="4.73341" />
    <path
       inkscape:connector-curvature="0"
       id="path4333"
       d="m 391.90967,264.14317 0,47.85471"
       style="fill:none;stroke:#ffffff;stroke-width:20;stroke-linecap:round;stroke-linejoin:round;stroke-miterlimit:4;stroke-opacity:1;stroke-dasharray:none" />
    <path
       inkscape:transform-center-y="126.39785"
       inkscape:transform-center-x="-60.403525"
       style="fill:none;stroke:#ffffff;stroke-width:20;stroke-linecap:round;stroke-linejoin:round;stroke-miterlimit:4;stroke-opacity:1;stroke-dasharray:none"
       d="m 439.43006,257.09212 22.16187,42.41374"
       id="path4335"
       inkscape:connector-curvature="0" />
    <path
       inkscape:transform-center-y="77.808665"
       inkscape:transform-center-x="-116.49383"
       style="fill:none;stroke:#ffffff;stroke-width:20;stroke-linecap:round;stroke-linejoin:round;stroke-miterlimit:4;stroke-opacity:1;stroke-dasharray:none"
       d="m 476.69361,221.67792 40.7178,25.14231"
       id="path4339"
       inkscape:connector-curvature="0" />
    <path
       inkscape:connector-curvature="0"
       id="path4361"
       d="M 439.43006,85.671125 461.59193,43.257386"
       style="fill:none;stroke:#ffffff;stroke-width:20;stroke-linecap:round;stroke-linejoin:round;stroke-miterlimit:4;stroke-opacity:1;stroke-dasharray:none"
       inkscape:transform-center-x="-60.403525"
       inkscape:transform-center-y="126.39785" />
    <path
       inkscape:connector-curvature="0"
       id="path4363"
       d="m 476.69361,121.08532 40.7178,-25.142305"
       style="fill:none;stroke:#ffffff;stroke-width:20;stroke-linecap:round;stroke-linejoin:round;stroke-miterlimit:4;stroke-opacity:1;stroke-dasharray:none"
       inkscape:transform-center-x="-116.49383"
       inkscape:transform-center-y="77.808665" />
    <path
       inkscape:connector-curvature="0"
       id="path4367"
       d="m 293.18172,169.97835 -47.85463,0.0911"
       style="fill:none;stroke:#ffffff;stroke-width:20;stroke-linecap:round;stroke-linejoin:round;stroke-miterlimit:4;stroke-opacity:1;stroke-dasharray:none"
       inkscape:transform-center-x="-140.00927"
       inkscape:transform-center-y="4.73341" />
    <path
       inkscape:connector-curvature="0"
       id="path4371"
       d="m 390.74792,72.889239 0,-47.854712"
       style="fill:none;stroke:#ffffff;stroke-width:20;stroke-linecap:round;stroke-linejoin:round;stroke-miterlimit:4;stroke-opacity:1;stroke-dasharray:none" />
    <path
       inkscape:transform-center-y="126.39785"
       inkscape:transform-center-x="-60.403525"
       style="fill:none;stroke:#ffffff;stroke-width:20;stroke-linecap:round;stroke-linejoin:round;stroke-miterlimit:4;stroke-opacity:1;stroke-dasharray:none"
       d="M 343.22752,83.94029 321.06565,41.526551"
       id="path4373"
       inkscape:connector-curvature="0" />
    <path
       inkscape:transform-center-y="77.808665"
       inkscape:transform-center-x="-116.49383"
       style="fill:none;stroke:#ffffff;stroke-width:20;stroke-linecap:round;stroke-linejoin:round;stroke-miterlimit:4;stroke-opacity:1;stroke-dasharray:none"
       d="M 305.96397,119.35449 265.24617,94.212181"
       id="path4375"
       inkscape:connector-curvature="0" />
    <path
       style="fill:none;stroke:#ffffff;stroke-width:20;stroke-linecap:round;stroke-linejoin:round;stroke-miterlimit:4;stroke-opacity:1;stroke-dasharray:none"
       d="m 390.74792,268.14317 0,47.85471"
       id="path4383"
       inkscape:connector-curvature="0" />
    <path
       inkscape:connector-curvature="0"
       id="path4385"
       d="m 343.22752,257.09212 -22.16187,42.41374"
       style="fill:none;stroke:#ffffff;stroke-width:20;stroke-linecap:round;stroke-linejoin:round;stroke-miterlimit:4;stroke-opacity:1;stroke-dasharray:none"
       inkscape:transform-center-x="-60.403525"
       inkscape:transform-center-y="126.39785" />
    <path
       inkscape:connector-curvature="0"
       id="path4387"
       d="m 305.96397,221.67792 -40.7178,25.14231"
       style="fill:none;stroke:#ffffff;stroke-width:20;stroke-linecap:round;stroke-linejoin:round;stroke-miterlimit:4;stroke-opacity:1;stroke-dasharray:none"
       inkscape:transform-center-x="-116.49383"
       inkscape:transform-center-y="77.808665" />
  </g>
  <path
     style="color:#000000;fill:#ffffff;fill-opacity:1;fill-rule:nonzero;stroke:none;stroke-width:0;marker:none;visibility:visible;display:inline;overflow:visible;enable-background:accumulate"
     d="m 440.23509,36.353273 -80.97066,162.232477 81.84441,0 -68.69604,149.62503 156.44889,-196.89256 -88.41859,0 69.77788,-114.964947 z"
     id="rect3011"
     inkscape:connector-curvature="0"
     sodipodi:nodetypes="cccccccc" />
</svg>

<svg width="580" height="580" viewBox="0 0 580 580" fill="none" xmlns="http://www.w3.org/2000/svg">
<g clip-path="url(#clip0)">
<path d="M66.2751 1.76802C24.9401 1.76802 1.7041 23.139 1.7041 66.804V516.927C1.7041 557.771 22.5981 579.156 63.8961 579.156H515.92C557.227 579.156 578.149 558.84 578.149 516.927V66.804C578.149 24.203 557.227 1.76802 514.627 1.76802C514.624 1.76802 66.1331 1.62502 66.2751 1.76802Z" fill="#111111" stroke="#EEEEEE" stroke-width="3.408"/>
<path d="M91.6543 382.944C85.4694 382.935 79.548 387.413 77.8697 393.366L71.3285 416.427H133.045L137.147 382.944H91.6543ZM161.021 382.944L156.919 416.427H230.351L232.568 382.944H161.021ZM256.257 382.944L254.039 416.427H323.96L321.743 382.944H256.257ZM345.432 382.944L347.649 416.427H421.081L416.979 382.944H345.432ZM440.853 382.944L444.955 416.427H506.671L500.13 393.366C498.452 387.413 492.53 382.936 486.345 382.944H440.853ZM66.6351 435.348L56.62 470.826H126.652L131.013 435.348H66.6351ZM154.886 435.348L150.525 470.826H226.914L229.242 435.348H154.886ZM252.931 435.348L250.603 470.826H327.397L325.069 435.348H252.931ZM348.758 435.348L351.086 470.826H427.474L423.114 435.348H348.758ZM446.987 435.348L451.348 470.826H521.38L511.365 435.348H446.987ZM50.5592 492.113L43.5745 516.836C42.3683 521.072 43.2499 525.849 45.9027 529.364C48.5555 532.88 52.9178 535.053 57.3221 535.056H118.78L124.065 492.113H50.5592ZM147.902 492.113L142.654 535.056H222.664L225.509 492.113H147.902ZM249.198 492.113L246.353 535.056H331.647L328.802 492.113H249.198ZM352.49 492.113L355.336 535.056H435.346L430.098 492.113H352.49ZM453.935 492.113L459.22 535.056H520.678C525.082 535.054 529.444 532.88 532.097 529.364C534.75 525.849 535.632 521.072 534.425 516.836L527.441 492.113H453.935Z" fill="white"/>
<path d="M230.999 166.098C230.999 200.962 202.736 229.225 167.872 229.225C133.009 229.225 104.746 200.962 104.746 166.098C104.746 131.234 133.009 102.972 167.872 102.972C202.736 102.972 230.999 131.234 230.999 166.098Z" fill="white" stroke="white" stroke-width="9.35898" stroke-linecap="round" stroke-linejoin="round"/>
<path d="M259.184 167.02L303.971 166.934" stroke="white" stroke-width="18.718" stroke-linecap="round" stroke-linejoin="round"/>
<path d="M167.872 254.142V298.929" stroke="white" stroke-width="18.718" stroke-linecap="round" stroke-linejoin="round"/>
<path d="M212.347 247.542L233.088 287.237" stroke="white" stroke-width="18.718" stroke-linecap="round" stroke-linejoin="round"/>
<path d="M247.221 214.398L285.329 237.929" stroke="white" stroke-width="18.718" stroke-linecap="round" stroke-linejoin="round"/>
<path d="M212.347 87.1099L233.088 47.4149" stroke="white" stroke-width="18.718" stroke-linecap="round" stroke-linejoin="round"/>
<path d="M247.221 120.254L285.329 96.7234" stroke="white" stroke-width="18.718" stroke-linecap="round" stroke-linejoin="round"/>
<path d="M75.4731 166.013L30.686 166.098" stroke="white" stroke-width="18.718" stroke-linecap="round" stroke-linejoin="round"/>
<path d="M166.785 75.1474V30.3602" stroke="white" stroke-width="18.718" stroke-linecap="round" stroke-linejoin="round"/>
<path d="M122.311 85.49L101.57 45.795" stroke="white" stroke-width="18.718" stroke-linecap="round" stroke-linejoin="round"/>
<path d="M87.4358 118.634L49.3281 95.1035" stroke="white" stroke-width="18.718" stroke-linecap="round" stroke-linejoin="round"/>
<path d="M166.785 257.885V302.672" stroke="white" stroke-width="18.718" stroke-linecap="round" stroke-linejoin="round"/>
<path d="M122.311 247.542L101.57 287.237" stroke="white" stroke-width="18.718" stroke-linecap="round" stroke-linejoin="round"/>
<path d="M87.4358 214.398L49.3281 237.929" stroke="white" stroke-width="18.718" stroke-linecap="round" stroke-linejoin="round"/>
<path d="M440.235 36.3533L359.264 198.586H441.109L372.413 348.211L528.862 151.318H440.443L510.221 36.3533H440.235Z" fill="white"/>
</g>
<defs>
<clipPath id="clip0">
<path d="M0 0H580V580H0V0Z" fill="white"/>
</clipPath>
</defs>
</svg>
